X:1
T:Title
%%score { 1 | ( 2 3 ) }
L:1/8
Q:1/4=100
M:3/4
K:Bb
V:1 treble nm="Grand Piano"
V:2 bass 
V:3 bass 
V:1
 [DF]2 [DB]2 [FA]2 | G>G G2 z2 | [=EG]2 [Ec]2 [CGB]2 | [CFA]>[CFA] [CFA]2 z2 | %4
w: Robert~Lowry * *||||
 [DFB]2 [CFA]2 [B,=EG]2 | [A,F]6 | [Fd]2 [Ec]2 [DB]2 | c>c c2 z2 | c2 B2 A2 | %9
w: |||||
 [DFB]>[DFB] [DFB]2 z2 | [B,GB]2 [B,FA]2 [B,EG]2 | [DF]>[DF] [FB]2 [Gc]2 | d2 B2 [EFc]2 | [DFB]6 |] %14
w: |||||
V:2
 [B,,B,]2 [B,,F,]2 [D,B,]2 | [E,B,E]>[E,B,E] [E,B,E]2 z2 | [C,C]2 [C,G,]2 =E,2 | F,>F, F,2 z2 | %4
 B,,2 C,2 C,2 | F,6 | [B,,B,]2 [B,,B,]2 [B,,B,]2 | [F,A,F]>[F,A,F] [F,A,F]2 z2 | %8
 [F,EF]2 [F,DF]2 [F,CF]2 | B,,>B,, B,,2 z2 | E,2 E,2 E,2 | [B,,B,]>[B,,B,] [D,B,]2 [E,B,]2 | %12
 [F,F]2- [F,DF]2 F,2 | B,,6 |] %14
V:3
 x6 | x6 | x6 | x6 | x6 | x6 | x6 | x6 | x6 | x6 | x6 | x6 | B,2 z2 z2 | x6 |] %14

